X: 1
T: Circassian Circle
M: C|
Q: 160
C: &quot;A Hornpipe&quot;
S: Wm Irwin, Folio MS, c1850. AGG's Transcription
R: Hornpipe
O: England
A: Lake District
Z: vmp.Chris Partington.2005
F:http://www.village-music-project.org.uk/abc/IRWIN.ABC 2007-09-26 01:44:28 UT
K: Bbmaj
dc|B<Fdc B2dc|B<Fdc B2ed|c<Fed c2ed|c<Fed cdcB|
B<Fdc B2dc|B<Fdc BcdB|cded cFGA|B2d2B2:|
|:fe|dBfe d2fe|dfga bfed|cFed c2ed|cdcB Agfe|
dBfe d2fe|dfga bfed|cdcB AFGA|B2d2B2:|
